!!!OTL: Die heilige Katharina Der Koenig und der Kaiser,
!!!ARE: Europa, Mitteleuropa, Lothringen, Gebenhausen
!!!SCT: D0051
!!!YEM: Copyright 1995, estate of Helmut Schaffrath.
**kern
*ICvox
*Ivox
*M4/4
*k[]
*a:
{4e
=1
4.a
8b
4ccn
4a
=2
4b
4ggn
4r}
{4ccn
=3
4a
8e
8e
8d
8e
8fn
8d
=4
4e}
{4ccn
4.dd
8ee
=5
4ccn
8a
8a
8dd
8ccn
[4b
=6
4b]}
{8ccn
8b
4a
4a
=7
4g#
4b
4a}
==
!!!AGN: Legenden - Lied
!! Verzierung; Inzipit = Variante zum Lied
!!!ONB: ESAC (Essen Associative Code) Database: DVA
!!!AMT: simple quadruple
!!!AIN: vox
!!!EED: Helmut Schaffrath
!!!EEV: 1.0
*-
